X: 33154
T: Princess Royal, The
R: reel
M: 4/4
K: Gmajor
|:dc|B2 A2 G2 dc|BcBA G2 d2|e2 ed cdec|d2 cB B2 d2|
c2 B2 A2 G2|F2 E2 D2 c2|B2 AG A2 F2|1 G4 G2:|2 G4 G3||
|:z|g2 g2 g2 fg|a2 d2 d4|gfed cBAG|FA D2 D4|
E2 EF GFGA|B2 G2 g4|g2 d2 e4|d2 B2 c4|
c2 B2 A2 G2|FGAF D2 dc|BABG A2 D2|1 G4 G3:|2 G4 G2||

